assets/svgs/icon-external-link.svg

<svg width="32" height="33" viewBox="0 0 32 33" fill="none" xmlns="http://www.w3.org/2000/svg">
    <g clip-path="url(#a)">
      <path d="m11.878 19.5671 9.5414-9.5415" stroke="#0B6AB7" stroke-width="1.5" stroke-linecap="square" stroke-linejoin="round" class="svg__stroke--primary-blue-03"/>
      <path d="M22.7092 19.5667v.75h-1.5v-.75h1.5Zm-.75-10.08159v-.75h.75v.75h-.75Zm-10.0815.74999h-.75V8.73511h.75v1.49999Zm9.3315 9.3316V9.48511h1.5V19.5667h-1.5Zm.75-9.3316H11.8777V8.73511h10.0815v1.49999Z" fill="#0B6AB7" class="svg__fill--primary-blue-03"/>
      <path d="M7 25.4744h14.2857" stroke="#0AA5FF" stroke-width="1.5" class="svg__stroke--default-cyan-03"/>
    </g>
    <defs>
      <clipPath id="a">
        <path fill="#fff" transform="matrix(-1 0 0 1 32 0)" d="M0 0h32v32.8644H0z"/>
      </clipPath>
    </defs>
  </svg>

<svg width="32" height="33" viewBox="0 0 32 33" fill="none" xmlns="http://www.w3.org/2000/svg">
<g clip-path="url(#clip0_360_5706)">
<path d="M11.878 19.5671L21.4194 10.0256" stroke="#0B6AB7" stroke-width="1.5" stroke-linecap="square" stroke-linejoin="round"/>
<path d="M22.7092 19.5667L22.7092 20.3167L21.2092 20.3167L21.2092 19.5667L22.7092 19.5667ZM21.9592 9.48511L21.9592 8.73511L22.7092 8.73511L22.7092 9.48511L21.9592 9.48511ZM11.8777 10.2351L11.1277 10.2351L11.1277 8.73511L11.8777 8.73511L11.8777 10.2351ZM21.2092 19.5667L21.2092 9.48511L22.7092 9.48511L22.7092 19.5667L21.2092 19.5667ZM21.9592 10.2351L11.8777 10.2351L11.8777 8.73511L21.9592 8.73511L21.9592 10.2351Z" fill="#0B6AB7"/>
<path d="M7 25.4744H21.2857" stroke="#0AA5FF" stroke-width="1.5"/>
</g>
<defs>
<clipPath id="clip0_360_5706">
<rect width="32" height="32.8644" fill="white" transform="matrix(-1 8.74228e-08 8.74228e-08 1 32 0)"/>
</clipPath>
</defs>
</svg>
